X:6
T:Green broom
C:Taken down from J Woodrich, Oct. 1888, by H.FL.S.
%%VWML:SBG-1-1-58-0
F:http://www.vwml.org/record/SBG/1/1/58
Z:Original Sibleius Transcription by Martin and Shan Graebe
M:6/8
L:1/8
K:G
z3z2D | GFG (BA)G | FGA G2A | BAB dcB |
 A2 D D2D | BAB dcB |AGE D2D | DcB AGA | G2 G G2 ||
T:Green broom
T:Sent me by Bruce Tyndall Esq. Exmouth, as heard from a Devonshire Cook, 1840
M:3/8
L:1/8
K:D
A, | DED | FED | DFA | A2 B/c/ | d2 c/B/ | EF^G | A2 A | BGE |BGE |
DCA | BGE | DC A,/A,/ | DED | FED | A2 A | d2 c/B/ |AFA | GEC | D3 ||
T:Green broom
T:D’Urfey, “Pills to Purge Melancholly”  VI. p. 100
M:3/4
L:1/8
K:D
d2 | d2 f2 g2 | a2>b2 a2 | a2 f2 d2 | d2 d2 e2 | f2 a2 f2 | f2 a2 f2 | e4 e2 | d2 e2 f2 | f2 e2 d2 |
g2 a2 b2 | b4 b2 | a2 f2 d2 | d2 e2 f2 | g4 e2 | g4 b2 | a2 f2 d2 | f2 a2 A2 |d4 ||
T:Green broom
T:“Northumbrian Minstrelsy” 1882, p. 98
M:6/8
L:1/8
K:G
D | GGG BAB | GBc d2B | ccc AGA | D2 AA2D |
w:There was an old man *who lived in the West, His tradews the cit-ting of the broom, green broom. There
 GGG BAB |GBd d2g | fed Ad^c | (d3d2)d | gfg dcB |
w:was an old man *who lived in the West, His trade was the cut-ting of broom*He had a lazy lad* whose
ecA !fermata!GFD  |GGG BAB |GBd !fermata!g2 e|ded cBA|(G3G2) ||
w:name it was Jack *who'd lie in his bed * till noon *till noon, who'd lie in his bed* till noon
T:Green broom
T:Taken down from Jas. Ellis, Chaddlehanger, Lamerton.
M:6/8
L:1/8
K:G
G | GBB BAG | Bdd d2e/f/ | gfe dBG | d2 dd2g | gfe fff |
gfe d2G | GBd def | gfe d2[GB] | Bcd edc |B2 AG2 ||
